contributed-vectors/easy_pose.svg

<?xml version="1.0" encoding="UTF-8" standalone="no"?>
<svg
   xmlns:dc="http://purl.org/dc/elements/1.1/"
   xmlns:cc="http://creativecommons.org/ns#"
   xmlns:rdf="http://www.w3.org/1999/02/22-rdf-syntax-ns#"
   xmlns:svg="http://www.w3.org/2000/svg"
   xmlns="http://www.w3.org/2000/svg"
   xmlns:sodipodi="http://sodipodi.sourceforge.net/DTD/sodipodi-0.dtd"
   xmlns:inkscape="http://www.inkscape.org/namespaces/inkscape"
   inkscape:export-ydpi="96"
   inkscape:export-xdpi="96"
   inkscape:export-filename="/home/jphilippe/inkscape/icônes/delta-github/png/newpipe.png"
   inkscape:version="0.92.5 (2060ec1f9f, 2020-04-08)"
   sodipodi:docname="easy_pose.svg"
   xml:space="preserve"
   enable-background="new 0 0 192 192"
   viewBox="0 0 192 192"
   y="0px"
   x="0px"
   id="Слой_1"
   version="1.1"><circle
     style="fill:#f8c18c;fill-opacity:1;stroke-width:1.75999999"
     id="circle1097"
     class="st0"
     cx="96"
     cy="96"
     r="88" /><path
     id="path959"
     class="st1"
     d="m 71.809309,61.028929 v 70.013281 c 0,1.65685 1.155764,2.31571 2.581568,1.47176 8.581006,-5.07921 36.873693,-21.82127 59.266353,-35.017151 1.42743,-0.841178 1.42737,-2.204432 -3.1e-4,-3.045206 L 74.394349,59.551285 a 1.7148406,1.7148406 150.24713 0 0 -2.58504,1.477644 z"
     sodipodi:nodetypes="cccc"
     inkscape:original-d="m 71.809309,58.028929 v 76.013281 c 0,0 37.452251,-22.17568 64.432651,-38.068241 z"
     inkscape:path-effect="#path-effect972"
     style="fill:#000000;fill-opacity:0;stroke-width:1.23198" /><path
     id="path961"
     class="st0"
     d="m 83.759532,81.726223 v 28.495487 c 0,1.65685 1.156884,2.3176 2.584183,1.47618 4.769871,-2.81195 15.280555,-9.00491 24.148925,-14.206735 1.42914,-0.838274 1.43036,-2.198188 0.002,-3.038246 L 86.345335,80.247283 a 1.7158382,1.7158382 150.23277 0 0 -2.585803,1.47894 z"
     sodipodi:nodetypes="cccc"
     inkscape:path-effect="#path-effect974"
     inkscape:original-d="m 83.759532,78.726223 v 34.495487 c 0,0 17.124548,-10.10225 29.321168,-17.247741 z"
     style="fill:#000000;fill-opacity:0;stroke-width:1.23198" /><rect
     id="rect963"
     x="83.759537"
     y="102.87306"
     class="st0"
     width="7.6382871"
     height="25.871618"
     style="fill:#000000;fill-opacity:0;stroke-width:1.23198" /><metadata
     id="metadata13"><rdf:RDF><cc:Work
         rdf:about=""><dc:format>image/svg+xml</dc:format><dc:type
           rdf:resource="http://purl.org/dc/dcmitype/StillImage" /><dc:title></dc:title></cc:Work></rdf:RDF></metadata><defs
     id="defs11"><inkscape:path-effect
       effect="fillet_chamfer"
       id="path-effect967"
       is_visible="true"
       lpeversion="1"
       satellites_param="F,0,0,1,0,3,0,1 @ F,0,0,1,0,3,0,1 @ F,0,0,1,0,3,0,1"
       unit="px"
       method="auto"
       mode="F"
       radius="3"
       chamfer_steps="1"
       flexible="false"
       use_knot_distance="true"
       apply_no_radius="true"
       apply_with_radius="true"
       only_selected="false"
       hide_knots="false" /><inkscape:path-effect
       effect="fillet_chamfer"
       id="path-effect970"
       is_visible="true"
       lpeversion="1"
       satellites_param="F,0,0,1,0,3,0,1 @ F,0,0,1,0,3,0,1 @ F,0,0,1,0,3,0,1"
       unit="px"
       method="auto"
       mode="F"
       radius="3"
       chamfer_steps="1"
       flexible="false"
       use_knot_distance="true"
       apply_no_radius="true"
       apply_with_radius="true"
       only_selected="false"
       hide_knots="false" /><inkscape:path-effect
       effect="fillet_chamfer"
       id="path-effect972"
       is_visible="true"
       lpeversion="1"
       satellites_param="F,0,0,1,0,3,0,1 @ F,0,0,1,0,3,0,1 @ F,0,0,1,0,3,0,1"
       unit="px"
       method="auto"
       mode="F"
       radius="3"
       chamfer_steps="1"
       flexible="false"
       use_knot_distance="true"
       apply_no_radius="true"
       apply_with_radius="true"
       only_selected="false"
       hide_knots="false" /><inkscape:path-effect
       effect="fillet_chamfer"
       id="path-effect974"
       is_visible="true"
       lpeversion="1"
       satellites_param="F,0,0,1,0,3,0,1 @ F,0,0,1,0,3,0,1 @ F,0,0,1,0,3,0,1"
       unit="px"
       method="auto"
       mode="F"
       radius="3"
       chamfer_steps="1"
       flexible="false"
       use_knot_distance="true"
       apply_no_radius="true"
       apply_with_radius="true"
       only_selected="false"
       hide_knots="false" /></defs><sodipodi:namedview
     inkscape:document-rotation="0"
     inkscape:object-paths="true"
     inkscape:snap-object-midpoints="true"
     inkscape:snap-center="false"
     inkscape:object-nodes="true"
     inkscape:snap-intersection-paths="true"
     inkscape:current-layer="Слой_1"
     inkscape:window-maximized="1"
     inkscape:window-y="-2"
     inkscape:window-x="-12"
     inkscape:cy="80.717308"
     inkscape:cx="56.575514"
     inkscape:zoom="2.4583334"
     showgrid="true"
     id="namedview9"
     inkscape:window-height="745"
     inkscape:window-width="1280"
     inkscape:pageshadow="2"
     inkscape:pageopacity="0"
     guidetolerance="10"
     gridtolerance="10"
     objecttolerance="10"
     borderopacity="1"
     bordercolor="#666666"
     pagecolor="#ffffff"
     showguides="true"
     inkscape:guide-bbox="true"><inkscape:grid
       type="xygrid"
       id="grid828" /></sodipodi:namedview><style
     type="text/css"
     id="style824">
	.st0{fill:#CD201F;}
	.st1{fill:#FFFFFF;}
</style><g
     transform="translate(-222.58199,84.185032)"
     id="Vonalak" /><path
     style="opacity:1;vector-effect:none;fill:#fefeff;fill-opacity:1;stroke-width:4;paint-order:stroke fill markers"
     d="M 65.695312 68.3125 L 55.765625 71.859375 L 55.90625 80.859375 L 60 82.53125 L 60 93.945312 L 40 102.39844 L 40 112 L 48 120 L 48 169.66406 A 88 88 0 0 0 52 172.11719 L 52 118.33594 L 60 115 L 60 176.2168 A 88 88 0 0 0 64 177.88086 L 64 113.33594 L 96 100 L 128 113.33594 L 128 177.96875 A 88 88 0 0 0 132 176.17773 L 132 115 L 140 118.33594 L 140 172.08398 A 88 88 0 0 0 144 169.72461 L 144 120 L 152 112 L 152 102.39844 L 132 93.945312 L 132 82.53125 L 136.09375 80.859375 L 136.23438 71.859375 L 126.30469 68.3125 L 96 80 L 65.695312 68.3125 z M 65.460938 71.085938 L 96 84 L 126.53906 71.085938 L 132.21094 72.640625 L 101.29688 85.578125 L 146.44531 104.42969 L 140.71875 107.71094 L 96 90 L 51.28125 107.71094 L 45.554688 104.42969 L 90.703125 85.578125 L 59.789062 72.640625 L 65.460938 71.085938 z M 64 84.164062 L 73.726562 88.140625 L 64 92.25 L 64 84.164062 z M 128 84.164062 L 128 92.25 L 118.27344 88.140625 L 128 84.164062 z "
     id="rect873" /></svg>

<svg xmlns="http://www.w3.org/2000/svg" xml:space="preserve" id="Слой_1" x="0" y="0" version="1.1" viewBox="0 0 192 192"><circle id="circle1097" cx="96" cy="96" r="88" class="st0" style="fill:#f8c18c;fill-opacity:1;stroke-width:1.75999999"/><path id="path959" d="M71.81 61.029v70.013c0 1.657 1.155 2.316 2.58 1.472 8.582-5.08 36.875-21.821 59.267-35.017 1.428-.841 1.428-2.205 0-3.045l-59.263-34.9a1.715 1.715 150.247 0 0-2.585 1.477z" style="fill:#000;fill-opacity:0;stroke-width:1.23198"/><path id="path961" d="M83.76 81.726v28.496c0 1.657 1.156 2.317 2.584 1.476 4.77-2.812 15.28-9.005 24.149-14.207 1.429-.838 1.43-2.198.002-3.038l-24.15-14.206a1.716 1.716 150.233 0 0-2.585 1.48z" class="st0" style="fill:#000;fill-opacity:0;stroke-width:1.23198"/><path id="rect963" d="M83.76 102.873h7.638v25.872H83.76z" class="st0" style="fill:#000;fill-opacity:0;stroke-width:1.23198"/><style id="style824" type="text/css">.st0{fill:#cd201f}</style><path id="rect873" d="m65.695 68.313-9.93 3.546.141 9L60 82.531v11.414l-20 8.453V112l8 8v49.664a88 88 0 0 0 4 2.453v-53.781L60 115v61.217a88 88 0 0 0 4 1.664v-64.545L96 100l32 13.336v64.633a88 88 0 0 0 4-1.791V115l8 3.336v53.748a88 88 0 0 0 4-2.36V120l8-8v-9.602l-20-8.453V82.531l4.094-1.672.14-9-9.93-3.546L96 80 65.695 68.312zm-.234 2.773L96 84l30.54-12.914 5.67 1.555-30.913 12.937 45.148 18.852-5.726 3.28L96 90l-44.719 17.71-5.726-3.28 45.148-18.852L59.79 72.641l5.672-1.555zM64 84.164l9.727 3.977L64 92.25v-8.086zm64 0v8.086l-9.727-4.11L128 84.165z" style="opacity:1;vector-effect:none;fill:#fefeff;fill-opacity:1;stroke-width:4;paint-order:stroke fill markers"/></svg>
